X: 1396
T: An Sioda
R: slide
M: 12/8
K: Gmajor
|:A|BGA EGD E3 DEG|BGA EGD cBc A2D|
BGA EGD E3 DEG|GBA AGE G3 G2:|
|:D|G3 B2d e/f/ge dBA|G3 B2d ede g3|
ded B2d e/f/ge dBA|BAG EDE c3 B2A:|

